X: 32371
T: Pipe On The Hob, The
R: jig
M: 6/8
K: Adorian
|:c3 edc|edc BAG|ABA g3|eaf ged|
c3 edc|edc deg|age dBe|1 ABA A2B:|2 ABA A2f||
|:g3 gea|age edB|ABA g3|eaf gef|
g3 gea|age deg|age dBe|1 ABA A2f:|2 ABA A2B||
|:c3 dcd|ecA AGE|c3 dcd|ecA A2B|
cBc dcd|ede gab|age dBe|ABA A2B:|

